img/logo-1.svg

<svg width="106" height="24" viewBox="0 0 106 24" fill="none" xmlns="http://www.w3.org/2000/svg">
<g clip-path="url(#clip0)">
<path d="M23.6091 15.3147H26.401V23.7576H23.6091V15.3147ZM24.0212 14.4039H21.918L23.7571 11.9834H26.2527L28.0938 14.4039H25.9912L25.0059 13.1009L24.0212 14.4039Z" fill="#E42313"/>
<path d="M27.7612 12.1433H30.5548V23.7577H27.7612V12.1433Z" fill="#E42313"/>
<path d="M37.5521 18.6697C37.5032 17.7206 36.828 16.9413 35.8928 16.9413C34.9081 16.9413 34.2509 17.6403 34.0852 18.6697H37.5521ZM34.0852 20.2114C34.1345 21.3659 34.8087 22.1303 35.9932 22.1303C36.6633 22.1303 37.3218 21.821 37.5846 21.2013H40.1986C39.6897 23.1545 37.8632 23.9998 35.9578 23.9998C33.1826 23.9998 31.293 22.3408 31.293 19.512C31.293 16.9257 33.3794 15.0708 35.8928 15.0708C38.9492 15.0708 40.4766 17.3492 40.3466 20.2114H34.0852Z" fill="#E42313"/>
<path d="M44.0152 22.948C45.4924 22.948 46.0627 21.6919 46.0627 20.4498C46.0627 19.1389 45.4654 17.9363 43.9528 17.9363C42.4505 17.9363 41.9438 19.2042 41.9438 20.5004C41.9438 21.7428 42.5927 22.948 44.0152 22.948ZM47.1262 23.7575H46.0248V22.8613H45.9984C45.6371 23.5913 44.7802 23.9104 43.8621 23.9104C41.8016 23.9104 40.7793 22.2941 40.7793 20.4234C40.7793 18.551 41.7897 16.9733 43.8373 16.9733C44.5218 16.9733 45.5065 17.228 45.9984 18.0112H46.0248V14.6015H47.1262V23.7575Z" fill="#E42313"/>
<path d="M52.8223 19.8077C52.7712 18.7678 51.9833 17.9363 50.8931 17.9363C49.7399 17.9363 49.054 18.7939 48.9768 19.8077H52.8223ZM53.8865 21.6545C53.5873 23.1154 52.527 23.9106 51.0228 23.9106C48.8864 23.9106 47.8751 22.4488 47.811 20.4236C47.811 18.4344 49.1325 16.9735 50.9594 16.9735C53.3287 16.9735 54.0547 19.1666 53.9891 20.7707H48.9768C48.9382 21.9262 49.6006 22.9479 51.0611 22.9479C51.9679 22.9479 52.6026 22.5103 52.7975 21.6545H53.8865Z" fill="#E42313"/>
<path d="M54.7046 12.1433H63.3436V14.5667H57.7571V16.9412H62.5879V19.283H57.7571V23.7577H54.7046V12.1433Z" fill="#E42313"/>
<path d="M63.9023 15.3148H66.6145V16.7954H66.6438C67.0568 15.7221 68.0074 15.1498 69.2086 15.1498C69.4216 15.1498 69.6506 15.1708 69.8655 15.2189V17.7384C69.5036 17.6403 69.1771 17.575 68.7975 17.575C67.4178 17.575 66.6924 18.5196 66.6924 19.578V23.7577H63.9023V15.3148Z" fill="#E42313"/>
<path d="M73.4795 22.2927C74.8078 22.2927 75.2524 21.5452 75.1871 19.805C74.7936 20.0465 74.0705 20.0984 73.4622 20.2598C72.8391 20.4038 72.3128 20.6653 72.3128 21.3338C72.3128 22.0156 72.8532 22.2927 73.4795 22.2927ZM69.8654 17.9165C69.9143 16.8136 70.4409 16.0957 71.1939 15.6556C71.9502 15.2345 72.9349 15.0708 73.9067 15.0708C75.9257 15.0708 77.8825 15.5107 77.8825 17.9015V21.5936C77.8825 22.3089 77.8825 23.0889 78.2119 23.7577H75.4007C75.3029 23.4962 75.2694 23.2373 75.2366 22.9612C74.5141 23.7083 73.4464 23.9998 72.4263 23.9998C70.8008 23.9998 69.5205 23.1886 69.5205 21.4465C69.5205 18.699 72.5428 18.9111 74.4803 18.5193C74.9577 18.4222 75.2202 18.2598 75.2202 17.7384C75.2202 17.1056 74.4498 16.861 73.8736 16.861C73.1006 16.861 72.6091 17.2037 72.4765 17.9165H69.8654Z" fill="#E42313"/>
<path d="M78.8999 15.3148H81.6121V16.4702H81.6442C82.1541 15.6081 83.3029 15.0708 84.3217 15.0708C87.1644 15.0708 87.3944 17.1202 87.3944 18.3416V23.7577H84.6031V19.6754C84.6031 18.5196 84.7341 17.3495 83.2051 17.3495C82.1541 17.3495 81.6941 18.2263 81.6941 19.1537V23.7577H78.8999V15.3148Z" fill="#E42313"/>
<path d="M93.983 18.4075C93.9659 17.6919 93.3248 17.1867 92.6197 17.1867C91.0585 17.1867 90.8118 18.5033 90.8118 19.6754C90.8118 20.7652 91.2882 21.8859 92.4714 21.8859C93.44 21.8859 93.9363 21.3337 94.0637 20.441H96.7759C96.5292 22.7 94.7557 24 92.4875 24C89.9258 24 88.0176 22.2598 88.0176 19.6754C88.0176 16.9912 89.7434 15.0708 92.4875 15.0708C94.6074 15.0708 96.4967 16.1778 96.6952 18.4075H93.983Z" fill="#E42313"/>
<path d="M103.2 18.6697C103.15 17.7206 102.476 16.9413 101.538 16.9413C100.554 16.9413 99.8985 17.6403 99.7338 18.6697H103.2ZM99.7338 20.2114C99.783 21.3659 100.456 22.1303 101.639 22.1303C102.311 22.1303 102.97 21.821 103.232 21.2013H105.845C105.335 23.1545 103.51 23.9998 101.605 23.9998C98.8292 23.9998 96.9399 22.3408 96.9399 19.512C96.9399 16.9257 99.0271 15.0708 101.538 15.0708C104.596 15.0708 106.124 17.3492 105.992 20.2114H99.7338Z" fill="#E42313"/>
<path d="M27.7178 4.80391C28.966 4.80391 30.0317 4.48448 30.0317 3.0408C30.0317 2.0688 29.499 1.34713 28.2509 1.34713H24.9413V4.80391H27.7178ZM23.6089 0.235946H28.321C30.2 0.235946 31.3639 1.24967 31.3639 2.83252C31.3639 4.0265 30.8311 5.0122 29.6251 5.34533V5.37304C30.789 5.59534 31.0277 6.4425 31.1258 7.41418C31.2098 8.38586 31.1538 9.4687 31.7145 10.1493H30.2283C29.8493 9.74673 30.0597 8.67759 29.8635 7.70559C29.7232 6.73391 29.4849 5.91445 28.1946 5.91445H24.9413V10.1493H23.6089V0.235946Z" fill="#2A327C"/>
<path d="M36.2453 1.14441e-05H37.7737L35.9368 1.98542H35.039L36.2453 1.14441e-05ZM38.0545 5.8728C37.9982 4.74856 37.1428 3.84598 35.9648 3.84598C34.7166 3.84598 33.9735 4.77627 33.8893 5.8728H38.0545ZM39.2042 7.87253C38.8819 9.45507 37.7318 10.3159 36.1051 10.3159C33.7911 10.3159 32.6974 8.73307 32.627 6.53938C32.627 4.3874 34.0575 2.80487 36.0349 2.80487C38.6014 2.80487 39.3866 5.17883 39.3165 6.91423H33.8893C33.8471 8.16394 34.5626 9.27449 36.1472 9.27449C37.1287 9.27449 37.8158 8.80282 38.0262 7.87253H39.2042Z" fill="#2A327C"/>
<path d="M45.6281 6.41443C45.6281 5.15102 45.067 3.8462 43.5663 3.8462C42.038 3.8462 41.4207 5.08159 41.4207 6.45615C41.4207 7.74759 41.8977 9.19158 43.4682 9.19158C45.039 9.19158 45.6281 7.76128 45.6281 6.41443ZM46.8061 9.53872C46.8061 11.871 45.7262 13.0649 43.4402 13.0649C42.0801 13.0649 40.5093 12.5235 40.4392 10.9547H41.6314C41.6874 11.8155 42.7251 12.121 43.5104 12.121C45.067 12.121 45.684 11.0101 45.684 9.39955V8.92756H45.656C45.2633 9.80243 44.3098 10.2327 43.3981 10.2327C41.2386 10.2327 40.1587 8.55271 40.1587 6.59501C40.1587 4.90133 41.0002 2.80477 43.5104 2.80477C44.422 2.80477 45.2353 3.20733 45.6702 3.99875H45.684V2.97133H46.8061V9.53872Z" fill="#2A327C"/>
<path d="M48.6717 2.97137H49.8639V10.1493H48.6717V2.97137ZM49.8636 1.67993H48.6714V0.235941H49.8636V1.67993Z" fill="#2A327C"/>
<path d="M54.8427 9.27449C56.0908 9.27449 57.1006 8.3028 57.1006 6.56708C57.1006 4.81799 56.0908 3.84598 54.8427 3.84598C53.5945 3.84598 52.5847 4.81799 52.5847 6.56708C52.5847 8.3028 53.5945 9.27449 54.8427 9.27449ZM54.8427 2.80487C57.1424 2.80487 58.3626 4.45683 58.3626 6.56708C58.3626 8.66364 57.1424 10.3159 54.8427 10.3159C52.5429 10.3159 51.3228 8.66364 51.3228 6.56708C51.3228 4.45683 52.5429 2.80487 54.8427 2.80487Z" fill="#2A327C"/>
<path d="M59.7656 2.97138H60.8874V4.10963H60.9157C61.4207 3.22106 62.2339 2.80481 63.2714 2.80481C65.1787 2.80481 65.7677 3.88764 65.7677 5.42877V10.1493H64.5758V5.28992C64.5758 4.41505 64.0148 3.84592 63.1031 3.84592C61.6588 3.84592 60.9575 4.80391 60.9575 6.09535V10.1493H59.7656V2.97138Z" fill="#2A327C"/>
<path d="M14.284 8.76145C14.2213 8.78565 13.9935 8.85317 14.0122 8.86209C13.9935 8.85317 13.979 8.84999 13.98 8.83406C14.0051 8.74839 13.6052 9.11655 13.5862 8.97483C13.5747 8.95063 13.6052 8.98056 13.5489 8.96591C13.695 8.98598 12.655 9.31178 12.655 9.29363C12.6051 9.18694 12.6164 9.0812 12.6826 8.98375C12.7646 8.7796 12.5047 8.48819 12.6025 8.57386C12.5321 8.50316 12.5321 8.4366 12.6003 8.36558C12.645 8.39743 12.6025 8.3557 12.6263 8.26494C12.655 8.24678 12.5723 8.13436 12.6476 8.17449C12.7129 8.15538 12.8206 7.79136 12.7434 7.53179C12.5723 7.13879 12.645 4.30208 12.7315 4.41068C12.7624 4.2145 12.579 4.06991 12.6665 3.925C12.6733 3.77595 12.5295 3.77086 12.5488 3.67022C12.4722 3.37085 12.0463 3.37594 12.0933 3.31256C11.8684 3.36193 11.0391 4.68299 11.0311 4.71643C11.0819 4.6677 10.4697 5.57887 10.4819 5.58206C10.4144 5.56677 10.3381 5.68461 10.324 5.82124C10.3179 5.8378 9.97656 6.25469 10.0132 6.17315C9.89646 6.36743 9.75846 6.55247 9.65069 6.75088C9.73433 6.69801 9.49982 6.91139 9.53488 6.90439C9.54003 6.88146 9.27078 7.54613 9.26756 7.48848C9.29297 7.39899 8.93654 7.81556 8.89923 7.81843C8.82363 8.1213 7.69128 7.38115 7.67005 7.04229C7.67294 7.02987 7.64689 6.72827 7.49441 6.69196C7.56132 6.75088 6.68889 5.96423 6.75484 6.02538C6.29869 5.42409 5.94 5.44129 5.26542 4.85719C5.26992 4.84796 5.10779 4.47725 4.99359 4.34603C4.73881 4.40782 4.39428 4.79955 4.46698 4.89605C4.35793 4.94159 4.33766 4.8056 4.29488 4.75942C4.26046 4.9072 4.40651 5.76009 4.40651 5.76009C4.39042 5.8827 4.46537 6.51584 4.49304 6.42189L4.54226 6.47699C4.54226 6.48304 4.46538 6.57158 4.55995 6.63304C4.66354 6.81394 4.87328 6.94165 4.79865 7.19389C4.70696 7.23943 4.80958 7.57001 4.7935 7.46237C4.69056 7.98499 5.93003 8.96782 5.75857 9.66561C5.67911 9.72804 5.99501 10.0991 5.93003 10.0819C5.82258 10.2067 5.5025 10.2863 5.27893 10.3453C5.21363 10.3828 5.14607 10.3494 5.07562 10.3281C5.00807 10.3153 4.44575 10.0879 4.2878 10.1937C4.28169 10.2096 3.82167 10.0879 3.81846 10.108C3.90113 10.0156 3.2925 10.2357 3.38385 10.0398C3.42342 9.88791 2.85371 10.2007 2.99429 10.1182C2.98496 10.1239 2.74594 10.2567 2.75206 10.2175C2.77071 10.1647 2.53492 10.2118 2.58864 10.2245C2.55293 10.2147 2.31134 10.1462 2.34673 10.1695C2.2129 10.0819 2.1846 10.2007 2.02632 10.1252C2.01667 10.143 1.83685 10.1675 1.80339 10.1586C1.79213 10.1554 1.44696 10.1707 1.44696 10.1605C1.4743 10.1491 1.14393 10.2558 1.12173 10.1707C1.13396 10.1554 0.861163 10.3602 0.784601 10.2338C0.8187 10.129 0.477065 10.3195 0.423022 10.3274C0.381524 10.3195 0.208777 10.2446 0.242555 10.2981C0.213924 10.3134 0 10.5726 0 10.5726C0.0402112 10.5847 1.17385 11.4268 0.995952 11.295C0.995952 11.295 1.11819 11.3959 1.41608 11.5714C1.36879 11.6969 1.85358 11.5771 1.77476 11.8498C2.22577 11.5864 3.15031 12.8173 3.47457 12.6221C3.51575 12.6221 3.65407 12.837 3.69911 12.8202C3.62609 12.7574 3.93394 12.9208 3.83712 12.9138C3.8799 12.9638 3.86414 12.9456 4.01147 13.0966C4.38077 13.0804 4.53776 13.3823 4.66 13.4842C5.06597 14.2571 3.3816 15.004 3.23652 15.3948C3.23105 15.4145 3.23105 15.4308 3.20853 15.4244C3.22751 15.4425 2.97274 15.5343 2.94378 15.6559L2.69094 15.9804C2.4664 15.9171 1.89636 16.8142 1.66507 16.9298L1.11562 17.1811C1.11562 17.1811 1.03841 17.2556 0.986944 17.3314C0.936439 17.4095 0.861164 17.4999 0.805833 17.519C0.758545 17.5375 0.417232 17.8709 0.417232 17.8709L0.332627 18.0289L0.469988 18.0891C0.469988 18.0891 0.381524 18.1917 0.368335 18.2362C0.349355 18.2745 0.300137 18.3859 0.406616 18.4098C0.517599 18.4353 0.579363 18.4353 0.60542 18.4866C0.629225 18.5388 1.0709 18.5722 1.10661 18.5652C1.13975 18.5538 1.35946 18.4576 1.35946 18.4576C1.57178 18.391 2.26663 18.4009 2.34673 18.4697C2.33257 18.4665 3.35651 18.2203 3.38385 18.1388C3.41731 18.1436 4.01437 17.9311 4.01437 17.9311C4.17778 17.8557 4.55159 17.7958 4.67061 17.6611C4.55706 17.683 5.15218 17.4799 5.32011 17.5614C5.3719 17.5894 6.80663 17.2945 6.85585 17.112C6.97166 17.1238 6.98485 17.2305 6.9916 17.2369C6.95815 17.4251 6.98742 17.9464 6.91633 18.0372C6.9189 17.9624 6.71527 18.1725 6.78444 18.2843C6.92855 18.3289 6.92148 18.2773 7.01091 18.4866C6.96909 18.392 7.02088 18.9082 7.00898 19.0939C7.0138 19.1933 7.17497 19.5223 6.90893 19.6519C6.90893 19.6519 6.75838 19.9615 6.75162 19.9567C6.77157 19.8051 6.77157 20.0344 6.74262 19.9908C6.87708 19.9277 6.83719 20.3344 6.80663 20.3844C6.83205 20.3204 6.73683 20.4624 6.72685 20.414C6.51004 20.835 6.96619 20.8819 6.70305 20.929C6.81564 20.9624 6.87451 21.5217 6.86743 21.4398C6.89317 21.6284 6.87708 21.8099 6.81886 21.9883C6.7809 21.8717 6.71688 22.2026 6.73683 22.2924C6.7809 22.5026 6.67506 22.8991 6.87708 22.9908C6.8462 22.908 7.03021 23.1835 7.03021 23.1835C7.50341 23.3819 7.61922 22.7685 7.82961 22.6717C7.90102 22.6568 7.98305 22.3743 8.05125 22.3962C8.05801 22.3743 8.34238 21.0274 8.56145 21.0972C8.55116 21.0972 8.92753 20.544 9.00442 20.3073C9.00152 20.3236 8.82363 20.1143 9.20129 19.9516C9.38465 20.0127 9.46958 19.5283 9.51655 19.2519C9.52877 19.0939 9.64169 19.1703 9.65777 19.0022C9.65455 19.0487 9.98268 18.5057 10.0364 18.2834C10.0901 18.2866 10.0985 18.0372 10.1361 18.0713C10.0341 17.9837 10.2249 17.8802 10.2001 17.8037C10.2352 17.67 10.2236 17.5506 10.2825 17.5614C10.3381 17.3009 10.5035 17.4142 10.5402 17.4381C10.6187 17.4799 10.7264 17.4142 10.7393 17.6076C10.6637 17.7044 10.9844 17.7958 10.9568 17.8557C10.9474 17.8098 12.4874 19.6079 12.9126 19.9525C12.9323 19.9707 14.1248 21.1424 14.073 21.13C14.2049 21.1978 14.3158 21.4347 14.3248 21.4182C14.275 21.494 14.5523 21.6188 14.6012 21.6188C14.7816 21.9316 14.791 21.8676 14.8875 21.8141C14.919 21.9536 15.1587 21.8864 15.2465 21.9316C15.2198 21.8644 15.435 21.8051 15.3884 21.7303C15.4533 21.7529 15.344 21.4771 15.4044 21.5096C15.3276 21.3784 14.8759 20.7835 14.9071 20.6745C14.9164 20.6376 14.9718 20.6513 15.0052 20.6586C14.9994 20.6236 14.9476 20.587 14.9164 20.5618C14.9994 20.5599 15.0174 20.5169 14.9718 20.4303C14.8907 20.4742 14.7794 19.9656 14.8498 19.8943C14.8785 19.7643 14.4812 18.1726 14.2933 18.0171C14.3055 17.9614 14.2283 17.6108 14.2135 17.5805C13.9021 17.3881 14.1598 17.0034 13.9449 16.9359C13.8947 17.0314 13.6708 16.6687 13.6387 16.3664C13.5354 16.1792 13.6387 15.7295 13.5682 15.7964C13.5071 15.7282 13.8912 15.5664 13.9864 15.7734C14.7971 16.0773 16.3454 15.5731 16.9054 16.0027C17.0377 15.7553 17.3352 15.9476 17.176 15.9021C17.1515 15.932 17.2043 15.9467 17.2406 15.9566C17.1663 15.941 17.7859 15.9021 17.8798 15.9508C17.6411 15.8932 18.2302 15.9311 18.2067 15.9222C17.9976 15.8769 18.6252 15.9967 19.2937 15.5862C19.5336 15.5132 19.4896 15.3897 19.5903 15.1623C19.5494 15.3562 19.6527 14.9683 19.4497 14.8454C18.2652 14.5514 17.323 13.6861 16.1434 13.3801C15.6862 13.2839 14.9476 12.1756 14.5549 12.2459C15.269 11.4386 15.9616 10.6351 16.698 9.94938C16.8427 9.8118 18.3189 8.235 18.3189 8.25379C18.374 8.17449 18.4566 7.91206 18.4505 8.0248C18.4534 7.98722 18.4354 7.93722 18.3955 7.88053C18.3926 7.89996 17.8409 7.47256 17.6968 7.73881C17.8914 7.85855 17.3027 7.89996 17.1586 7.93308C17.1145 7.96015 17.0772 7.949 17.0441 7.94009C16.8964 7.9041 16.7034 8.07066 16.605 8.09264C16.3891 7.90219 15.8484 8.25602 15.6026 8.33755C15.6229 8.32704 15.4971 8.35252 15.306 8.31207C15.2236 8.44551 15.2262 8.40762 15.2465 8.39551C15.1751 8.43373 15.1149 8.49424 14.8267 8.5917C14.8592 8.6038 14.644 8.69361 14.5613 8.67196C14.5684 8.70954 14.5291 8.81017 14.4021 8.78565C14.3065 8.76145 14.3191 8.72546 14.284 8.76145Z" fill="#E42313"/>
</g>
<defs>
<clipPath id="clip0">
<rect width="106" height="24" fill="white"/>
</clipPath>
</defs>
</svg>

<svg width="106" height="24" viewBox="0 0 106 24" fill="none" xmlns="http://www.w3.org/2000/svg"><g clip-path="url(#clip0)"><path d="M23.61 15.315h2.79v8.443h-2.792v-8.443zm.411-.911h-2.103l1.84-2.42h2.495l1.84 2.42h-2.102l-.985-1.303-.985 1.303z" fill="#E42313"/><path d="M27.761 12.143h2.794v11.615H27.76V12.143zm9.791 6.527c-.049-.95-.724-1.729-1.66-1.729-.984 0-1.641.7-1.807 1.729h3.467zm-3.467 1.541c.05 1.155.724 1.92 1.908 1.92.67 0 1.329-.31 1.592-.93h2.614C39.689 23.154 37.863 24 35.958 24c-2.775 0-4.665-1.66-4.665-4.488 0-2.586 2.086-4.441 4.6-4.441 3.056 0 4.584 2.278 4.454 5.14h-6.262zm9.93 2.737c1.477 0 2.048-1.256 2.048-2.498 0-1.311-.598-2.514-2.11-2.514-1.503 0-2.01 1.268-2.01 2.564 0 1.243.65 2.448 2.072 2.448zm3.111.81h-1.101v-.897h-.027c-.36.73-1.218 1.05-2.136 1.05-2.06 0-3.083-1.617-3.083-3.488 0-1.872 1.01-3.45 3.058-3.45.685 0 1.67.255 2.161 1.038h.027v-3.41h1.101v9.156zm5.696-3.95c-.05-1.04-.839-1.872-1.929-1.872-1.153 0-1.839.858-1.916 1.872h3.845zm1.064 1.846c-.299 1.461-1.359 2.257-2.863 2.257-2.137 0-3.148-1.462-3.212-3.487 0-1.99 1.322-3.45 3.148-3.45 2.37 0 3.096 2.193 3.03 3.797h-5.012c-.039 1.155.624 2.177 2.084 2.177.907 0 1.542-.438 1.736-1.294h1.09zm.819-9.511h8.639v2.424h-5.587v2.374h4.83v2.342h-4.83v4.475h-3.052V12.143zm9.197 3.172h2.713v1.48h.029c.413-1.073 1.363-1.645 2.565-1.645.213 0 .442.02.656.069v2.52a3.923 3.923 0 00-1.067-.164c-1.38 0-2.106.945-2.106 2.003v4.18h-2.79v-8.443z" fill="#E42313"/><path d="M73.48 22.293c1.328 0 1.772-.748 1.707-2.488-.393.242-1.117.293-1.725.455-.623.144-1.15.405-1.15 1.074 0 .682.541.959 1.168.959zm-3.615-4.377c.05-1.102.576-1.82 1.329-2.26.756-.421 1.74-.585 2.713-.585 2.019 0 3.975.44 3.975 2.83v3.693c0 .715 0 1.495.33 2.164H75.4c-.098-.262-.132-.52-.164-.797-.723.747-1.79 1.039-2.81 1.039-1.626 0-2.907-.811-2.907-2.553 0-2.748 3.023-2.536 4.96-2.928.478-.097.74-.26.74-.78 0-.633-.77-.878-1.346-.878-.773 0-1.265.343-1.397 1.055h-2.612zm9.035-2.601h2.712v1.155h.032c.51-.862 1.659-1.4 2.678-1.4 2.842 0 3.072 2.05 3.072 3.272v5.416h-2.79v-4.083c0-1.155.13-2.326-1.399-2.326-1.05 0-1.51.877-1.51 1.805v4.604H78.9v-8.443zm15.083 3.092c-.017-.715-.658-1.22-1.363-1.22-1.562 0-1.808 1.316-1.808 2.488 0 1.09.476 2.21 1.66 2.21.968 0 1.464-.551 1.592-1.444h2.712C96.529 22.7 94.756 24 92.488 24c-2.562 0-4.47-1.74-4.47-4.325 0-2.684 1.725-4.604 4.47-4.604 2.12 0 4.009 1.107 4.207 3.336h-2.712zm9.217.263c-.05-.95-.724-1.729-1.662-1.729-.984 0-1.64.7-1.804 1.729h3.466zm-3.466 1.541c.049 1.155.722 1.92 1.905 1.92.672 0 1.331-.31 1.593-.93h2.613c-.51 1.953-2.335 2.799-4.24 2.799-2.776 0-4.665-1.66-4.665-4.488 0-2.586 2.087-4.441 4.598-4.441 3.058 0 4.586 2.278 4.454 5.14h-6.258z" fill="#E42313"/><path d="M27.718 4.804c1.248 0 2.314-.32 2.314-1.763 0-.972-.533-1.694-1.781-1.694h-3.31v3.457h2.777zM23.608.236h4.713c1.879 0 3.043 1.014 3.043 2.597 0 1.194-.533 2.18-1.739 2.512v.028c1.164.222 1.403 1.07 1.5 2.041.085.972.029 2.055.59 2.735h-1.487c-.379-.402-.168-1.471-.365-2.443-.14-.972-.378-1.792-1.668-1.792H24.94v4.235h-1.33V.236zM36.245 0h1.529l-1.837 1.985h-.898L36.245 0zm1.81 5.873c-.057-1.124-.912-2.027-2.09-2.027-1.248 0-1.992.93-2.076 2.027h4.165zm1.15 2c-.323 1.582-1.473 2.443-3.1 2.443-2.314 0-3.408-1.583-3.478-3.777 0-2.152 1.43-3.734 3.408-3.734 2.566 0 3.352 2.374 3.282 4.11h-5.428c-.042 1.249.674 2.36 2.258 2.36.982 0 1.669-.472 1.88-1.402h1.177zm6.423-1.459c0-1.263-.561-2.568-2.062-2.568-1.528 0-2.145 1.236-2.145 2.61 0 1.292.477 2.736 2.047 2.736 1.571 0 2.16-1.43 2.16-2.778zm1.178 3.125c0 2.332-1.08 3.526-3.366 3.526-1.36 0-2.93-.541-3-2.11h1.191c.056.86 1.094 1.166 1.88 1.166 1.556 0 2.173-1.11 2.173-2.721v-.472h-.028c-.393.874-1.346 1.305-2.258 1.305-2.16 0-3.24-1.68-3.24-3.638 0-1.694.842-3.79 3.352-3.79.912 0 1.725.402 2.16 1.194h.014V2.97h1.122v6.57zm1.866-6.568h1.192v7.178h-1.192V2.971zm1.192-1.291H48.67V.236h1.193V1.68zm4.979 7.594c1.248 0 2.258-.971 2.258-2.707 0-1.749-1.01-2.721-2.258-2.721-1.249 0-2.258.972-2.258 2.721 0 1.736 1.01 2.707 2.258 2.707zm0-6.47c2.3 0 3.52 1.653 3.52 3.763 0 2.097-1.22 3.749-3.52 3.749s-3.52-1.652-3.52-3.749c0-2.11 1.22-3.762 3.52-3.762zm4.923.167h1.121V4.11h.029c.505-.889 1.318-1.305 2.355-1.305 1.908 0 2.497 1.083 2.497 2.624v4.72h-1.192V5.29c0-.874-.561-1.443-1.473-1.443-1.444 0-2.145.958-2.145 2.25v4.053h-1.192V2.971z" fill="#2A327C"/><path d="M14.284 8.761c-.063.025-.29.092-.272.101-.019-.009-.033-.012-.032-.028.025-.086-.375.283-.394.14-.011-.023.02.007-.037-.008.146.02-.894.346-.894.328a.299.299 0 01.028-.31c.082-.204-.178-.496-.08-.41-.07-.07-.07-.137-.003-.208.045.031.002-.01.026-.101.029-.018-.054-.13.022-.09.065-.02.173-.384.095-.643-.17-.393-.098-3.23-.011-3.121.03-.196-.153-.341-.066-.486.007-.149-.136-.154-.117-.255-.077-.3-.503-.294-.456-.357-.225.049-1.054 1.37-1.062 1.403.05-.048-.561.863-.55.866-.067-.015-.143.103-.157.24-.006.016-.347.433-.31.351-.118.194-.256.38-.363.578.083-.053-.151.16-.116.153.005-.023-.264.642-.267.584.025-.089-.331.328-.369.33-.075.303-1.208-.437-1.229-.776.003-.012-.023-.314-.176-.35.067.059-.805-.728-.74-.667-.455-.6-.814-.584-1.489-1.168.005-.009-.157-.38-.271-.511-.255.062-.6.454-.527.55-.11.046-.13-.09-.172-.137-.035.148.112 1.001.112 1.001-.017.123.058.756.086.662l.05.055c0 .006-.078.095.017.156.104.18.313.309.239.56-.092.046.01.377-.006.27-.102.522 1.137 1.505.966 2.203-.08.062.236.433.171.416-.107.125-.427.204-.651.263-.065.038-.133.004-.203-.017-.068-.013-.63-.24-.788-.134-.006.016-.466-.106-.47-.086.083-.092-.526.128-.434-.068.04-.152-.53.16-.39.078-.009.006-.248.139-.242.1.019-.053-.217-.006-.163.007-.036-.01-.278-.079-.242-.056-.134-.087-.162.032-.32-.044-.01.018-.19.043-.224.034-.01-.004-.356.012-.356.002.027-.012-.303.095-.325.01.012-.016-.26.19-.337.063.034-.105-.308.085-.362.093-.041-.008-.214-.082-.18-.029a3.937 3.937 0 00-.243.275c.04.012 1.174.854.996.722 0 0 .122.1.42.276-.047.126.438.006.359.279.45-.264 1.375.967 1.7.772.04 0 .18.215.224.198-.073-.063.235.1.138.094.043.05.027.032.174.183.37-.017.527.285.649.387.406.773-1.278 1.52-1.423 1.91-.006.02-.006.037-.028.03.019.019-.236.11-.265.232l-.253.324c-.225-.063-.795.834-1.026.95l-.55.251s-.077.075-.128.15c-.05.079-.126.169-.181.188-.047.019-.389.352-.389.352l-.084.158.137.06s-.088.103-.102.147c-.019.038-.068.15.039.174.11.025.172.025.198.077.024.052.466.085.502.078.033-.011.252-.107.252-.107.213-.067.908-.057.988.012-.014-.003 1.01-.25 1.037-.331.033.005.63-.208.63-.208.164-.075.538-.135.657-.27-.114.022.481-.181.65-.1.05.028 1.486-.267 1.535-.449.116.012.129.119.136.125-.034.188-.005.71-.076.8.003-.075-.2.136-.132.247.145.045.137-.007.227.203-.042-.095.01.421-.002.607.005.1.166.428-.1.558 0 0-.15.31-.157.305.02-.152.02.077-.01.034.135-.063.095.343.065.393.025-.064-.07.078-.08.03-.217.421.24.468-.024.515.113.033.172.593.164.51.026.19.01.37-.048.55-.038-.117-.102.214-.082.303.044.21-.062.607.14.699-.03-.083.153.192.153.192.473.199.59-.415.8-.511.071-.015.153-.298.221-.276.007-.022.291-1.369.51-1.299-.01 0 .367-.553.443-.79-.002.017-.18-.193.197-.355.184.06.269-.424.316-.7.012-.158.125-.082.14-.25-.002.047.326-.496.38-.719.053.004.061-.246.1-.212-.103-.087.088-.19.063-.267.035-.134.024-.253.083-.243.055-.26.22-.147.257-.123.079.042.186-.024.2.17-.076.096.244.188.217.248-.01-.046 1.53 1.752 1.956 2.096.02.019 1.212 1.19 1.16 1.178.132.068.243.305.252.288-.05.076.227.2.276.2.18.314.19.25.286.196.032.14.272.072.36.118-.027-.068.188-.127.141-.202.065.023-.044-.253.016-.22-.076-.132-.528-.727-.497-.836.01-.036.065-.023.098-.015-.006-.035-.057-.072-.089-.097.083-.002.101-.045.056-.132-.081.044-.193-.464-.122-.536.029-.13-.369-1.721-.557-1.877.013-.056-.065-.406-.08-.436-.31-.193-.053-.578-.268-.645-.05.095-.274-.267-.306-.57-.104-.187 0-.636-.07-.57-.062-.068.322-.23.417-.023.811.304 2.36-.2 2.92.23.132-.248.43-.055.27-.1-.024.029.028.044.065.054-.075-.016.545-.055.639-.006-.239-.058.35-.02.327-.029-.21-.045.418.075 1.087-.336.24-.073.196-.196.296-.424-.04.194.063-.194-.14-.317-1.185-.294-2.127-1.159-3.307-1.465-.457-.096-1.195-1.204-1.588-1.134.714-.807 1.407-1.61 2.143-2.297.145-.137 1.62-1.714 1.62-1.695.056-.08.139-.342.133-.23.002-.037-.016-.087-.056-.143-.002.019-.554-.408-.698-.142.194.12-.394.161-.538.194-.044.027-.082.016-.115.007-.148-.036-.34.13-.439.153-.216-.19-.757.163-1.002.245.02-.011-.106.015-.297-.026-.082.134-.08.096-.06.084-.07.038-.131.098-.42.196.033.012-.182.102-.265.08.007.038-.032.138-.159.114-.095-.025-.083-.06-.118-.025z" fill="#E42313"/></g><defs><clipPath id="clip0"><path fill="#fff" d="M0 0h106v24H0z"/></clipPath></defs></svg>
